packages/core/src/svgs/kas.svg

<svg width="24" height="24" viewBox="0 0 24 24" fill="none" xmlns="http://www.w3.org/2000/svg">
<g clip-path="url(#clip0_31_12253)">
<path d="M0 0H24V24H0V0Z" fill="#F0F3FA"/>
<path d="M10.3971 4.74839C9.66375 4.83293 8.95749 5.07566 8.32711 5.45982C7.70568 5.84554 5.73853 7.76125 5.33568 8.37411C4.79996 9.18839 4.75282 9.40268 4.71853 11.0313C4.69282 12.5698 4.76139 13.4827 4.96711 14.2027C5.20282 15.0255 5.44711 15.3684 6.76711 16.7398C8.11711 18.1413 8.54996 18.5055 9.16711 18.7541C10.5005 19.3232 11.9844 19.4361 13.3885 19.0755C15.6471 18.4884 17.3614 17.1255 18.36 15.1327C18.6886 14.4144 18.9706 13.6758 19.2042 12.9213C19.3285 12.4841 19.3071 11.1984 19.17 10.6798C18.7328 9.03411 18.1542 7.94125 17.1685 6.91697C16.1408 5.87231 14.8297 5.15125 13.3971 4.84268C12.4027 4.71245 11.3978 4.68086 10.3971 4.74839ZM13.9285 7.85125L14.5714 11.9998C14.3785 13.2941 14.0742 14.7813 13.8942 16.0713L12.3685 15.7155C12.5914 14.3055 12.7971 12.9555 12.7714 12.9298C12.7585 12.917 12.7071 12.9298 12.66 12.9727C12.0171 13.4741 9.58711 15.2955 9.58711 15.2955L8.65711 14.117C9.10282 13.7484 11.4214 11.9313 11.4214 11.9313L8.65711 9.71982L9.51853 8.54982L12.7757 10.9284C12.7757 10.9284 12.4457 8.41268 12.3814 8.13411L13.9242 7.85125H13.9285Z" fill="#71C9BB"/>
</g>
<defs>
<clipPath id="clip0_31_12253">
<rect width="24" height="24" fill="white"/>
</clipPath>
</defs>
</svg>

<svg xmlns="http://www.w3.org/2000/svg" width="24" height="24" fill="none" viewBox="0 0 24 24"><g clip-path="url(#a)"><path fill="#F0F3FA" d="M0 0h24v24H0z"/><path fill="#71C9BB" d="M10.397 4.748a5.1 5.1 0 0 0-2.07.712c-.621.386-2.588 2.301-2.991 2.914-.536.814-.583 1.029-.617 2.657-.026 1.539.042 2.452.248 3.172.236.822.48 1.165 1.8 2.537 1.35 1.401 1.783 1.766 2.4 2.014a6.6 6.6 0 0 0 4.222.322c2.258-.588 3.972-1.95 4.971-3.943q.493-1.079.844-2.212c.124-.437.103-1.723-.034-2.241-.437-1.646-1.016-2.739-2.001-3.763a7.5 7.5 0 0 0-3.772-2.074c-.994-.13-2-.162-3-.095m3.531 3.103L14.572 12c-.192 1.294-.497 2.781-.677 4.071l-1.526-.356c.223-1.41.43-2.76.403-2.785-.013-.013-.064 0-.111.043-.643.501-3.073 2.323-3.073 2.323l-.93-1.179c.446-.369 2.764-2.186 2.764-2.186L8.657 9.72l.862-1.17 3.257 2.378s-.33-2.515-.395-2.794l1.543-.283z"/></g><defs><clipPath id="a"><path fill="#fff" d="M0 0h24v24H0z"/></clipPath></defs></svg>
